X: 1
T: Brenda Stubbert's (\251Jerry Holland; R-121)
I: Brenda Stubbert's	R-121	A Dor	reel
M: C|
R: Reel
K: ADor
B|"Am"A/A/A BA GAAB| A/A/A BA edde| "G"G/G/G BA BGGB| "F"[c2G2]BA "G"BGGB|
  "Am"A/A/A BA GAAB| A/A/A BA edda| "G"gedB GABd| e2dB "Am"eAA:|
B| "Am"A/A/A a2 A/A/A g2| Aage ageg| "G"G/G/G BA BGGB| "F"[c2G2]BA "G"BGGB|
   "Am"A/A/A a2 A/A/A g2| Aage agea| "G"gedB GABd| e2dB "Am"eAAB|
   "Am"A/A/A a2 A/A/A g2| Aage ageg| "G"G/G/G BA BGGB| "F"[c2G2]BA "G"BGGB|
   "Am"A/A/A BA GAAB| A/A/A BA edda| "G"gedB GABd| e2dB "Am"eAA|]

%%topspace -.5cm
